src/components/00-materials/images-raw/SUV.svg

<svg width="96" height="96" viewBox="0 0 96 96" fill="none" xmlns="http://www.w3.org/2000/svg">
<path d="M72.5 75.6598C77.2331 75.6598 81.07 71.7646 81.07 66.9598C81.07 62.1549 77.2331 58.2598 72.5 58.2598C67.7669 58.2598 63.93 62.1549 63.93 66.9598C63.93 71.7646 67.7669 75.6598 72.5 75.6598Z" stroke="#00008F" stroke-width="2" stroke-linecap="round" stroke-linejoin="round"/>
<path d="M72.5 75.6598C77.2331 75.6598 81.07 71.7646 81.07 66.9598C81.07 62.1549 77.2331 58.2598 72.5 58.2598C67.7669 58.2598 63.93 62.1549 63.93 66.9598C63.93 71.7646 67.7669 75.6598 72.5 75.6598Z" stroke="#00008F" stroke-width="2" stroke-linecap="round" stroke-linejoin="round"/>
<path d="M72.5 70.9098C74.6484 70.9098 76.39 69.1413 76.39 66.9598C76.39 64.7782 74.6484 63.0098 72.5 63.0098C70.3516 63.0098 68.61 64.7782 68.61 66.9598C68.61 69.1413 70.3516 70.9098 72.5 70.9098Z" stroke="#00008F" stroke-width="2" stroke-linecap="round" stroke-linejoin="round"/>
<path d="M22.87 75.6598C27.6031 75.6598 31.44 71.7646 31.44 66.9598C31.44 62.1549 27.6031 58.2598 22.87 58.2598C18.1369 58.2598 14.3 62.1549 14.3 66.9598C14.3 71.7646 18.1369 75.6598 22.87 75.6598Z" stroke="#00008F" stroke-width="2" stroke-linecap="round" stroke-linejoin="round"/>
<path d="M22.87 70.9098C25.0184 70.9098 26.76 69.1413 26.76 66.9598C26.76 64.7782 25.0184 63.0098 22.87 63.0098C20.7216 63.0098 18.98 64.7782 18.98 66.9598C18.98 69.1413 20.7216 70.9098 22.87 70.9098Z" stroke="#00008F" stroke-width="2" stroke-linecap="round" stroke-linejoin="round"/>
<path d="M81.32 66.3096H90C90.7956 66.3096 91.5587 65.9935 92.1213 65.4309C92.6839 64.8683 93 64.1053 93 63.3096C93 62.514 92.6839 61.7509 92.1213 61.1883C91.5587 60.6257 90.7956 60.3096 90 60.3096H84.26C83.209 58.079 81.5453 56.1933 79.463 54.8726C77.3807 53.5519 74.9658 52.8506 72.5 52.8506C70.0342 52.8506 67.6192 53.5519 65.537 54.8726C63.4547 56.1933 61.791 58.079 60.74 60.3096H34.63C33.579 58.079 31.9153 56.1933 29.833 54.8726C27.7507 53.5519 25.3358 52.8506 22.87 52.8506C20.4042 52.8506 17.9892 53.5519 15.907 54.8726C13.8247 56.1933 12.161 58.079 11.11 60.3096H7.59998C6.80433 60.3096 6.04126 60.6257 5.47866 61.1883C4.91605 61.7509 4.59998 62.514 4.59998 63.3096C4.59998 64.1053 4.91605 64.8683 5.47866 65.4309C6.04126 65.9935 6.80433 66.3096 7.59998 66.3096H13.83M31.69 66.3096H63.46H31.69Z" stroke="#00008F" stroke-width="2" stroke-linecap="round" stroke-linejoin="round"/>
<path d="M6.32996 60.3498V48.8498C6.32996 47.7227 6.77772 46.6417 7.57475 45.8446C8.37178 45.0476 9.45279 44.5998 10.58 44.5998V37.7998C15 29.9998 18.08 26.7398 18.08 26.7398C18.08 26.7398 24 23.3398 39.89 23.3398C53 23.3398 64 32.9998 69.08 36.3398C70.2182 36.9848 71.4052 37.5398 72.63 37.9998L83.72 41.1998C90.48 43.0498 91.22 48.8498 91.22 48.8498V60.3498" stroke="#00008F" stroke-width="2" stroke-linecap="round" stroke-linejoin="round"/>
<path d="M10.58 37.5697C10.5773 36.7271 10.2415 35.9198 9.64567 35.324C9.04987 34.7282 8.24256 34.3923 7.39998 34.3897H6.09998C5.25741 34.3923 4.45009 34.7282 3.8543 35.324C3.2585 35.9198 2.92262 36.7271 2.91998 37.5697V49.0797C2.92263 49.9214 3.25883 50.7276 3.85491 51.3218C4.45099 51.9161 5.25832 52.2497 6.09998 52.2497H6.32998M91.22 49.6997H84.57V46.6997C84.5594 46.3137 84.6254 45.9295 84.7642 45.5692C84.9031 45.2089 85.112 44.8798 85.3789 44.6008C85.6458 44.3218 85.9654 44.0985 86.3192 43.9438C86.673 43.7891 87.0539 43.7062 87.44 43.6997H88.32M42.7 30.2897V42.3597M22.63 30.9997C28.5396 30.0651 34.5077 29.5472 40.49 29.4497C54 29.4497 66.38 42.1597 66.49 42.3597H27.58C21.63 42.3497 22.63 30.9997 22.63 30.9997Z" stroke="#00008F" stroke-width="2" stroke-linecap="round" stroke-linejoin="round"/>
</svg>

<svg width="96" height="96" viewBox="0 0 96 96" fill="none" xmlns="http://www.w3.org/2000/svg"><path d="M72.5 75.66c4.733 0 8.57-3.895 8.57-8.7s-3.837-8.7-8.57-8.7c-4.733 0-8.57 3.895-8.57 8.7s3.837 8.7 8.57 8.7z" stroke="#00008F" stroke-width="2" stroke-linecap="round" stroke-linejoin="round"/><path d="M72.5 75.66c4.733 0 8.57-3.895 8.57-8.7s-3.837-8.7-8.57-8.7c-4.733 0-8.57 3.895-8.57 8.7s3.837 8.7 8.57 8.7z" stroke="#00008F" stroke-width="2" stroke-linecap="round" stroke-linejoin="round"/><path d="M72.5 70.91c2.148 0 3.89-1.769 3.89-3.95 0-2.182-1.742-3.95-3.89-3.95s-3.89 1.768-3.89 3.95c0 2.181 1.742 3.95 3.89 3.95zM22.87 75.66c4.733 0 8.57-3.895 8.57-8.7s-3.837-8.7-8.57-8.7c-4.733 0-8.57 3.895-8.57 8.7s3.837 8.7 8.57 8.7z" stroke="#00008F" stroke-width="2" stroke-linecap="round" stroke-linejoin="round"/><path d="M22.87 70.91c2.148 0 3.89-1.769 3.89-3.95 0-2.182-1.742-3.95-3.89-3.95s-3.89 1.768-3.89 3.95c0 2.181 1.742 3.95 3.89 3.95z" stroke="#00008F" stroke-width="2" stroke-linecap="round" stroke-linejoin="round"/><path d="M81.32 66.31H90a3 3 0 000-6h-5.74a13 13 0 00-23.52 0H34.63a13 13 0 00-23.52 0H7.6a3 3 0 000 6h6.23m17.86 0h31.77-31.77z" stroke="#00008F" stroke-width="2" stroke-linecap="round" stroke-linejoin="round"/><path d="M6.33 60.35v-11.5a4.25 4.25 0 014.25-4.25v-6.8c4.42-7.8 7.5-11.06 7.5-11.06s5.92-3.4 21.81-3.4C53 23.34 64 33 69.08 36.34A25.1 25.1 0 0072.63 38l11.09 3.2c6.76 1.85 7.5 7.65 7.5 7.65v11.5" stroke="#00008F" stroke-width="2" stroke-linecap="round" stroke-linejoin="round"/><path d="M10.58 37.57a3.19 3.19 0 00-3.18-3.18H6.1a3.19 3.19 0 00-3.18 3.18v11.51a3.18 3.18 0 003.18 3.17h.23m84.89-2.55h-6.65v-3a2.922 2.922 0 012.87-3h.88M42.7 30.29v12.07M22.63 31a127.652 127.652 0 0117.86-1.55c13.51 0 25.89 12.71 26 12.91H27.58C21.63 42.35 22.63 31 22.63 31z" stroke="#00008F" stroke-width="2" stroke-linecap="round" stroke-linejoin="round"/></svg>
